public/icons/pinterest.svg

<?xml version="1.0" encoding="utf-8"?>
<svg width="1792" height="1792" viewBox="0 0 1792 1792" xmlns="http://www.w3.org/2000/svg"><path d="M1664 896q0 209-103 385.5t-279.5 279.5-385.5 103q-111 0-218-32 59-93 78-164 9-34 54-211 20 39 73 67.5t114 28.5q121 0 216-68.5t147-188.5 52-270q0-114-59.5-214t-172.5-163-255-63q-105 0-196 29t-154.5 77-109 110.5-67 129.5-21.5 134q0 104 40 183t117 111q30 12 38-20 2-7 8-31t8-30q6-23-11-43-51-61-51-151 0-151 104.5-259.5t273.5-108.5q151 0 235.5 82t84.5 213q0 170-68.5 289t-175.5 119q-61 0-98-43.5t-23-104.5q8-35 26.5-93.5t30-103 11.5-75.5q0-50-27-83t-77-33q-62 0-105 57t-43 142q0 73 25 122l-99 418q-17 70-13 177-206-91-333-281t-127-423q0-209 103-385.5t279.5-279.5 385.5-103 385.5 103 279.5 279.5 103 385.5z"/></svg>

<svg xmlns="http://www.w3.org/2000/svg" width="1792" height="1792"><path d="M1664 896q0 209-103 385.5T1281.5 1561 896 1664q-111 0-218-32 59-93 78-164 9-34 54-211 20 39 73 67.5t114 28.5q121 0 216-68.5t147-188.5 52-270q0-114-59.5-214T1180 449t-255-63q-105 0-196 29t-154.5 77-109 110.5-67 129.5T377 866q0 104 40 183t117 111q30 12 38-20 2-7 8-31t8-30q6-23-11-43-51-61-51-151 0-151 104.5-259.5T904 517q151 0 235.5 82t84.5 213q0 170-68.5 289T980 1220q-61 0-98-43.5T859 1072q8-35 26.5-93.5t30-103T927 800q0-50-27-83t-77-33q-62 0-105 57t-43 142q0 73 25 122l-99 418q-17 70-13 177-206-91-333-281T128 896q0-209 103-385.5T510.5 231 896 128t385.5 103T1561 510.5 1664 896z"/></svg>
